X: 10754
T: COTILLION No. 4. tune 6
C:
%R: reel
B: Elias Howe "The Musician's Companion" Part 1 1842 p.75 #4
S: http://imslp.org/wiki/The_Musician's_Companion_(Howe,_Elias)
Z: 2015 John Chambers <jc:trillian.mit.edu>
M: 2/4
L: 1/16
K: C
% - - - - - - - - - - - - - - - - - - - - - - - - -
G2 |\
c2c2e2c2 | G2G2G2 (AB) | c2c2 ecBA | G2G2G2g2 |\
gfef d2g2 | e4 g4 | d2d2 dcde | c2c2c2 H|]
CB,CD _EDEF | G^FGA =BABG | cBcd _edec | {^f}g4 g4 |\
CB,CD _EDEF | G^FGA BABG | cBcd _edec | g2g2"^D.C."g2 |]
% - - - - - - - - - - Dance description - - - - - - - - - -
%%begintext align
%% Ladies all balance to the right,
%% all promenade,
%% gentlemen all balance to the right,
%% all promenade.
%%endtext
%- - - - - - - - - - - - - - - - - - - - - - - - -
%%sep 1 1 300


